X:370
T:a Minuet
A:Wyresdale, Lancashire
B:E and J Winder, 1835-41
L:1/8
M:3/4
N:there's a bunch of overwritten notes in the 2nd half
O:England
Z:Richard Robinson 
%%TranscriptionNotes:Some guesswork here owing to imperfect legibility
%%TUNEURL: http://www.leeds.ac.uk/music/Info/RRTuneBk/gettune/00000ebe.html
%%ID:00000ebe
K:F
f6     | c2 f2g2 | abc'2b2 | a4g2 |\
a2bagf | g2 fedc | gab2a2  | g6 ::
g2 gggg | g4 ab   | g2bagf | g2fedc |\
b2 a4   | g2 fef2 | fgg4   | f6 :|
